( Use case: ? )
( Text import by GRBL-Plotter 1.6.6.3 )
(<Header >)
( G-Code lines: 20 )
( Pen Down/Up : 3 times )
( Duration ca.: 2.1 min. )
( Conv. time  : 00:00:00.0005350 )
( Font from array: Sans 1-stroke)
( Option: Add frame distance:5.00  with radius:False)
( Original graphic dimension min:-4.286;-5.000  max:9.048;10.000)
( Option: Hatch fill distance:1.00 angle:30.00)
(</Header >)
G54 (Setup - GCode-Header)
G90
M3 S240 (PU)
G04 P0.300
(<Group Id="1" Type="Text" ToolNr="1" ToolName="" PathLength="68.7">)
(<Figure Id="1" Geometry="Char X" Type="Text" PathId="0-0" PathLength="6.0"> )
G00 X0.677 Y1.328
M3 S0 (PD)
G04 P0.300
G01 X1.295 Y0.614 F2000
M3 S240 (PU)
G04 P0.300
G00 X1.295 Y1.328
M3 S0 (PD)
G04 P0.300
G01 X0.677 Y0.614
M3 S240 (PU)
G04 P0.300
(</Figure>)
(<Figure Id="2" Geometry="Char X" Type="Text" PathId="0-0" PathLength="6.0"> )
G00 X0.677 Y3.351
M3 S0 (PD)
G04 P0.300
G01 X1.295 Y2.637 F2000
M3 S240 (PU)
G04 P0.300
G00 X1.295 Y3.351
M3 S0 (PD)
G04 P0.300
G01 X0.677 Y2.637
M3 S240 (PU)
G04 P0.300
(</Figure>)
(<Figure Id="3" Geometry="Char X" Type="Text" PathId="0-0" PathLength="6.0"> )
G00 X0.677 Y5.331
M3 S0 (PD)
G04 P0.300
G01 X1.295 Y4.617 F2000
M3 S240 (PU)
G04 P0.300
G00 X1.295 Y5.331
M3 S0 (PD)
G04 P0.300
G01 X0.677 Y4.617
M3 S240 (PU)
G04 P0.300
(</Figure>)
(<Figure Id="4" Geometry="Char X" Type="Text" PathId="0-0" PathLength="6.0"> )
G00 X2.650 Y5.310
M3 S0 (PD)
G04 P0.300
G01 X3.268 Y4.596 F2000
M3 S240 (PU)
G04 P0.300
G00 X3.268 Y5.310
M3 S0 (PD)
G04 P0.300
G01 X2.650 Y4.596
M3 S240 (PU)
G04 P0.300
(</Figure>)
(<Figure Id="5" Geometry="Char X" Type="Text" PathId="0-0" PathLength="6.0"> )
G00 X2.692 Y3.316
M3 S0 (PD)
G04 P0.300
G01 X3.310 Y2.602 F2000
M3 S240 (PU)
G04 P0.300
G00 X3.310 Y3.316
M3 S0 (PD)
G04 P0.300
G01 X2.692 Y2.602
M3 S240 (PU)
G04 P0.300
(</Figure>)
(<Figure Id="6" Geometry="Char X" Type="Text" PathId="0-0" PathLength="6.0"> )
G00 X2.720 Y1.350
M3 S0 (PD)
G04 P0.300
G01 X3.338 Y0.636 F2000
M3 S240 (PU)
G04 P0.300
G00 X3.338 Y1.350
M3 S0 (PD)
G04 P0.300
G01 X2.720 Y0.636
M3 S240 (PU)
G04 P0.300
(</Figure>)
(</Group>)
M30
